X: 29566
T: Non, Je Ne Regrette Rien
R: slide
M: 12/8
K: Gmajor
"G" d6- d3- ded|"D7" d12|d6- dfe ddc|"G" B6- B3- Bcd|
"C" e6- e3- e=fe|"E7" e6- e3- e=fe|"Am" e6- eef gfg|"D7" a12|
"G" d6- d3- ded|"D7" d12|d6- dfe ddc|"G" B6- B3- Bcd|
"C" e6- e3- efe|"Am" e6- e3- egf|"D" f6- ffg agf|"G" g6 zgd edc|
"G" B3 z3 zgd edc|B3 z3 "D7" zfc dcB|A6 zed cBA|"G" B6 zgd edc|
"G" B3 z3 zgd edc|B3 z3 "D7" zfc dcB|A6 zed cBA|"G" G6- G3 z3|
"D7" d6- dfe ddc|"G" B6- B3- Bcd|"C" e6- "E7" e3- efe|"Am" e6- e3- egf|
"D7" f6- ffg agf|"G" g6- "C" g6|"G" g12|"G" z12||

